Numix/scalable/devices/drive-removable-media-usb-symbolic-1.svg

<?xml version="1.0" encoding="UTF-8" standalone="no"?>
<svg
   xmlns:dc="http://purl.org/dc/elements/1.1/"
   xmlns:cc="http://creativecommons.org/ns#"
   xmlns:rdf="http://www.w3.org/1999/02/22-rdf-syntax-ns#"
   xmlns:svg="http://www.w3.org/2000/svg"
   xmlns="http://www.w3.org/2000/svg"
   xmlns:sodipodi="http://sodipodi.sourceforge.net/DTD/sodipodi-0.dtd"
   xmlns:inkscape="http://www.inkscape.org/namespaces/inkscape"
   viewBox="0 0 16 16"
   id="svg2"
   version="1.1"
   inkscape:version="0.91 r"
   width="100%"
   height="100%"
   sodipodi:docname="drive-removable-media-usb-symbolic-1.svg">
  <metadata
     id="metadata10">
    <rdf:RDF>
      <cc:Work
         rdf:about="">
        <dc:format>image/svg+xml</dc:format>
        <dc:type
           rdf:resource="http://purl.org/dc/dcmitype/StillImage" />
        <dc:title />
      </cc:Work>
    </rdf:RDF>
  </metadata>
  <defs
     id="defs8" />
  <sodipodi:namedview
     pagecolor="#ffffff"
     bordercolor="#666666"
     borderopacity="1"
     objecttolerance="10"
     gridtolerance="10"
     guidetolerance="10"
     inkscape:pageopacity="0"
     inkscape:pageshadow="2"
     inkscape:window-width="1366"
     inkscape:window-height="712"
     id="namedview6"
     showgrid="true"
     inkscape:zoom="67.825682"
     inkscape:cx="7.9996727"
     inkscape:cy="16.758281"
     inkscape:window-x="0"
     inkscape:window-y="29"
     inkscape:window-maximized="1"
     inkscape:current-layer="svg2"
     showguides="true"
     inkscape:guide-bbox="true">
    <inkscape:grid
       type="xygrid"
       id="grid3790" />
  </sodipodi:namedview>
  <g
     id="g3854">
    <path
       sodipodi:nodetypes="cccccccccccccccccccccccccc"
       inkscape:connector-curvature="0"
       style="color:#bebebe;fill:#bebebe;fill-opacity:1;fill-rule:nonzero;stroke:none;stroke-width:1;marker:none;visibility:visible;display:inline;overflow:visible;enable-background:accumulate"
       d="M 7,3 7,5.6061995 4.2617915,7.675809 C 4.102729,7.772119 3.9984612,7.83778 4,8 L 4,9 3,9 3,12 6,12 6,9 5,9 5,8.5 7,6.75 7,13 5,13 8.0000015,16 11,13 9,13 9,5.35 11,6.75 11,9 12,9 12,6.5 C 12.0025,6.347082 11.973695,6.154415 11.830592,6.056452 L 9,4 9,3 z"
       id="path4707-3" />
    <path
       transform="matrix(1.5417427,0,0,1.4280358,3.8330293,-2.8560717)"
       d="m 4,3.2254596 a 1.2972333,1.2254595 0 1 1 -2.5944667,0 1.2972333,1.2254595 0 1 1 2.5944667,0 z"
       sodipodi:ry="1.2254595"
       sodipodi:rx="1.2972333"
       sodipodi:cy="3.2254596"
       sodipodi:cx="2.7027667"
       id="path3792"
       style="fill:#bebebe;fill-opacity:1;stroke:none"
       sodipodi:type="arc" />
    <path
       sodipodi:type="arc"
       style="fill:#bebebe;fill-opacity:1;stroke:none"
       id="path3813"
       sodipodi:cx="2.7027667"
       sodipodi:cy="3.2254596"
       sodipodi:rx="1.2972333"
       sodipodi:ry="1.2254595"
       d="m 4,3.2254596 a 1.2972333,1.2254595 0 1 1 -2.5944667,0 1.2972333,1.2254595 0 1 1 2.5944667,0 z"
       transform="matrix(1.156307,0,0,1.2240307,8.374772,5.5519385)" />
  </g>
</svg>

<svg xmlns="http://www.w3.org/2000/svg" viewBox="0 0 16 16">
 <g>
  <path d="m 7 3 0 2.606 -2.738 2.07 c -0.159 0.096 -0.263 0.162 -0.262 0.324 l 0 1 -1 0 0 3 3 0 0 -3 -1 0 0 -0.5 2 -1.75 0 6.25 -2 0 3 3 3 -3 -2 0 0 -7.65 2 1.4 0 2.25 1 0 0 -2.5 c 0.002 -0.153 -0.026 -0.346 -0.169 -0.444 l -2.831 -2.056 0 -1 z" style="visibility:visible;fill:#bebebe;fill-opacity:1;stroke:none;display:inline;color:#bebebe;fill-rule:nonzero"/>
  <path transform="matrix(1.5417427,0,0,1.4280358,3.8330293,-2.8560717)" d="m 4 3.225 a 1.297 1.225 0 1 1 -2.594 0 1.297 1.225 0 1 1 2.594 0 z" style="fill:#bebebe;fill-opacity:1;stroke:none"/>
  <path d="m 4 3.225 a 1.297 1.225 0 1 1 -2.594 0 1.297 1.225 0 1 1 2.594 0 z" transform="matrix(1.156307,0,0,1.2240307,8.374772,5.5519385)" style="fill:#bebebe;fill-opacity:1;stroke:none"/>
 </g>
</svg>
